public/favicon.svg

<svg width="128" height="128" viewBox="0 0 128 128" fill="none" xmlns="http://www.w3.org/2000/svg">
<path d="M46.3476 75.0394L63.8302 33.7072C63.9057 33.5463 63.9459 33.3653 63.9509 33.1894C63.9509 33.0084 63.9208 32.8324 63.8554 32.6666C63.785 32.5007 63.6844 32.3499 63.5586 32.2242C63.4329 32.0985 63.277 31.998 63.111 31.9376C62.945 31.8723 62.764 31.8321 62.5879 31.8321H19.842C19.5654 31.812 19.2837 31.8823 19.0524 32.0332C18.816 32.184 18.6349 32.4001 18.5293 32.6615L11.7344 49.0346C11.664 49.1954 11.6238 49.3764 11.6238 49.5523C11.6238 49.7333 11.654 49.9093 11.7244 50.0752C11.7948 50.241 11.8954 50.3868 12.0211 50.5125C12.1519 50.6382 12.3028 50.7337 12.4687 50.799C12.6297 50.8694 12.8057 50.9046 12.9818 50.9046H33.6833C34.0303 50.9046 34.3673 51.0454 34.6137 51.2917C34.8602 51.538 34.996 51.8748 34.996 52.2217C34.996 52.4027 34.9608 52.5786 34.8903 52.7495L17.6341 94.2929C17.5586 94.4588 17.5184 94.6347 17.5184 94.8157C17.5184 94.9967 17.5486 95.1726 17.619 95.3385C17.6894 95.5044 17.79 95.6552 17.9207 95.7809C18.0515 95.9066 18.2024 96.0021 18.3734 96.0674C18.5343 96.1378 18.7104 96.173 18.8864 96.173H64.1873C64.469 96.1931 64.7456 96.1177 64.982 95.9669C65.2184 95.8161 65.3994 95.5949 65.5 95.3285L72.3553 78.7946C72.4206 78.6287 72.4508 78.4527 72.4458 78.2768C72.4408 78.1008 72.4005 77.9249 72.3251 77.764C72.2496 77.6032 72.144 77.4574 72.0133 77.3417C71.8825 77.2211 71.7266 77.1306 71.5606 77.0753C71.3996 77.0049 71.2236 76.9697 71.0476 76.9697H47.5899C47.2429 76.9697 46.9059 76.829 46.6594 76.5827C46.413 76.3363 46.2772 75.9995 46.2772 75.6527C46.2571 75.4415 46.2872 75.2304 46.3577 75.0343L46.3476 75.0394Z" fill="#0E1017"/>
<path d="M56.4719 71.3043H74.4776C74.7442 71.3093 75.0108 71.2339 75.2321 71.0881C75.4534 70.9423 75.6294 70.7262 75.7249 70.4799L83.6062 51.7391C83.7068 51.4928 83.8778 51.2766 84.0991 51.1308C84.3204 50.985 84.587 50.9046 84.8535 50.9147H108.075C108.351 50.9348 108.628 50.8644 108.864 50.7136C109.101 50.5628 109.282 50.3466 109.388 50.0852L116.112 33.7122C116.187 33.5463 116.228 33.3703 116.228 33.1894C116.228 33.0084 116.198 32.8324 116.127 32.6666C116.057 32.5007 115.956 32.3499 115.825 32.2242C115.695 32.0985 115.544 32.003 115.373 31.9376C115.212 31.8673 115.036 31.8321 114.86 31.8321H71.7617C71.4851 31.812 71.2034 31.8823 70.972 32.0332C70.7357 32.184 70.5546 32.4001 70.449 32.6615L55.1441 69.4594C55.0687 69.6202 55.0285 69.8012 55.0234 69.9771C55.0234 70.1581 55.0536 70.3341 55.119 70.5C55.1844 70.6659 55.29 70.8167 55.4157 70.9423C55.5415 71.068 55.6974 71.1686 55.8634 71.2289C56.0545 71.2942 56.2557 71.3244 56.4569 71.3093L56.4719 71.3043Z" fill="#0E1017"/>
</svg>

<svg xmlns="http://www.w3.org/2000/svg" width="128" height="128" fill="none"><path fill="#0E1017" d="M46.348 75.04 63.83 33.706c.076-.16.116-.342.12-.518 0-.18-.03-.357-.095-.522a1.4 1.4 0 0 0-.296-.443 1.2 1.2 0 0 0-.448-.286 1.5 1.5 0 0 0-.523-.106H19.842c-.277-.02-.558.05-.79.201a1.34 1.34 0 0 0-.523.628l-6.795 16.374a1.33 1.33 0 0 0 .287 1.478q.197.187.448.286c.16.07.337.106.513.106h20.701a1.316 1.316 0 0 1 1.313 1.317q0 .271-.106.527L17.634 94.294a1.33 1.33 0 0 0 .287 1.488q.195.189.452.286c.161.07.337.106.513.106h45.301c.282.02.559-.055.795-.206.236-.15.417-.372.518-.638l6.855-16.534a1.31 1.31 0 0 0-.794-1.72 1.3 1.3 0 0 0-.513-.105H47.59a1.316 1.316 0 0 1-1.313-1.317 1.4 1.4 0 0 1 .08-.619z"/><path fill="#0E1017" d="M56.472 71.304h18.006a1.3 1.3 0 0 0 1.247-.824l7.881-18.74a1.3 1.3 0 0 1 1.247-.825h23.222c.276.02.553-.05.789-.201.237-.151.418-.367.524-.629l6.724-16.373q.114-.25.116-.523a1.315 1.315 0 0 0-.855-1.251 1.3 1.3 0 0 0-.513-.106H71.762c-.277-.02-.559.05-.79.201a1.34 1.34 0 0 0-.523.628L55.144 69.46a1.3 1.3 0 0 0-.12.518q-.001.273.095.523a1.32 1.32 0 0 0 .744.729 1.5 1.5 0 0 0 .594.08z"/></svg>
